resources/haticons/SVG/image_aspect_ratio.svg

<svg height="24" width="24" xmlns="http://www.w3.org/2000/svg"><path d="m20.016 18v-12h-16.031v12zm0-14.016q.797 0 1.383.609t.586 1.406v12q0 .797-.586 1.406t-1.383.609h-16.031q-.797 0-1.383-.609t-.586-1.406v-12q0-.797.586-1.406t1.383-.609h16.031zm-8.016 6v2.016h-2.016v-2.016zm-3.984 0v2.016h-2.016v-2.016zm7.968 4.032v1.969h-1.969v-1.969zm0-4.032v2.016h-1.969v-2.016z"/></svg>

<svg xmlns="http://www.w3.org/2000/svg" width="24" height="24"><path d="M20.016 18V6H3.985v12h16.031zm0-14.016q.797 0 1.383.609t.586 1.406v12q0 .797-.586 1.406t-1.383.609H3.985q-.797 0-1.383-.609t-.586-1.406v-12q0-.797.586-1.406t1.383-.609h16.031zm-8.016 6V12H9.984V9.984H12zm-3.984 0V12H6V9.984h2.016zm7.968 4.032v1.969h-1.969v-1.969h1.969zm0-4.032V12h-1.969V9.984h1.969z"/></svg>
